public/assets/images/utils/medal.svg

<svg width="42" height="42" viewBox="0 0 42 42" fill="none" xmlns="http://www.w3.org/2000/svg">
<rect width="42" height="42" rx="21" fill="white"/>
<rect x="0.5" y="0.5" width="41" height="41" rx="20.5" stroke="#007DFE" stroke-opacity="0.5373"/>
<path d="M16.2941 24.175L15.1663 32.6661L20.5195 29.4542C20.6941 29.3495 20.7814 29.2971 20.8746 29.2766C20.957 29.2585 21.0424 29.2585 21.1248 29.2766C21.218 29.2971 21.3053 29.3495 21.4799 29.4542L26.833 32.6661L25.7063 24.1742M29.1663 17.4994C29.1663 22.0098 25.51 25.6661 20.9997 25.6661C16.4893 25.6661 12.833 22.0098 12.833 17.4994C12.833 12.9891 16.4893 9.33276 20.9997 9.33276C25.51 9.33276 29.1663 12.9891 29.1663 17.4994Z" stroke="#0078D4" stroke-linecap="round" stroke-linejoin="round"/>
</svg>

<svg xmlns="http://www.w3.org/2000/svg" fill="none" viewBox="0 0 42 42"><rect width="42" height="42" fill="#fff" rx="21"/><rect width="41" height="41" x=".5" y=".5" stroke="#007dfe" stroke-opacity=".537" rx="20.5"/><path stroke="#0078d4" stroke-linecap="round" stroke-linejoin="round" d="m16.294 24.175-1.128 8.491 5.354-3.212c.174-.105.261-.157.355-.177a.6.6 0 0 1 .25 0c.093.02.18.072.355.177l5.353 3.212-1.127-8.492m3.46-6.675a8.167 8.167 0 1 1-16.333 0 8.167 8.167 0 0 1 16.333 0"/></svg>
